assets/symbols/mulberry/school_1.svg

<svg height="850.394" viewBox="0 0 850.394 850.394" width="850.394" xmlns="http://www.w3.org/2000/svg"><path d="m548.7 111.29c13.02 0 23.59 12.81 23.59 28.6 0 15.8-10.57 28.62-23.59 28.62-13.03 0-23.58-12.82-23.58-28.62 0-15.79 10.55-28.6 23.58-28.6zm154.49 0c13.02 0 23.6 12.81 23.6 28.6 0 15.8-10.58 28.62-23.6 28.62-13.021 0-23.58-12.82-23.58-28.62 0-15.79 10.56-28.6 23.58-28.6z" fill="#ffeec8"/><g fill="#0b00ea"><path d="m533.2 171.94c-9.94 2.96-16.99 10.46-16.99 19.24v36.92h-8.78l-2.41 4.02v-24.03c0-34.51 26.73-36.09 28.18-36.15z"/><path d="m533.2 171.94c2.93-.88 6.12-1.36 9.46-1.36h13.189c3.2 0 6.271.44 9.11 1.26 10.12 2.89 17.33 10.46 17.33 19.34v36.92h-66.08v-36.92c.001-8.78 7.051-16.28 16.991-19.24z"/><path d="m593.48 207.14v22.27l-.761-1.31h-10.43v-36.92c0-8.88-7.21-16.45-17.33-19.34l.26-.85c.001 0 28.261.67 28.261 36.15zm94.2-35.2c-9.93 2.96-16.979 10.46-16.979 19.24v36.92h-8.78l-2.41 4.02v-24.03c-.001-34.37 26.519-36.07 28.169-36.15zm60.29 35.2v22.27l-.76-1.31h-10.43v-36.92c0-8.88-7.2-16.45-17.32-19.34l.26-.85s28.25.67 28.25 36.15z"/><path d="m687.68 171.94c2.94-.88 6.13-1.36 9.471-1.36h13.199c3.2 0 6.271.44 9.11 1.26 10.12 2.89 17.32 10.46 17.32 19.34v36.92h-66.08v-36.92c0-8.78 7.05-16.28 16.98-19.24z"/></g><path d="m593.48 229.41 16.68 28.76h-120.76l15.619-26.04v-.01l2.41-4.02h85.29zm5.28 29v69.97h-94.08v-70.21h94.08zm154.49 0v69.97h-94.07v-70.21h94.07zm-5.28-29 16.69 28.76h-120.77l15.62-26.04v-.01l2.41-4.02h85.29z" fill="#9c5b16"/><path d="m569.46 574.61h33.96v91.64h-33.96z" fill="#fff"/><path d="m603.42 574.61h33.01v91.64h-33.01zm33.01-30.08v30.08h-33.01v-30.08zm-33.01 1.82v28.26h-33.96v-30.08h33.96zm-102.21 28.26h33.021v91.64h-33.021zm-33.95 0h33.95v91.64h-33.95zm66.97-30.08v30.08h-33.02v-30.08zm-33.02 1.82v28.26h-33.95v-30.08h33.95zm-252.37 28.26h33.02v91.64h-33.02zm-33.95 0h33.95v91.64h-33.95zm66.97-30.08v30.08h-33.02v-30.08zm-33.02 1.82v28.26h-33.95v-30.08h33.95zm-136.15 28.26h33.95v91.64h-33.95zm33.95 0h33.02v91.64h-33.02zm33.02-30.08v30.08h-33.02v-30.08zm-33.02 1.82v28.26h-33.95v-30.08h33.95z" fill="#fff"/><path d="m332.8 378.8 1.74 2.11-.83.69-85.58 70.53v42h-163.38v-115.33zm334.54 0v115.14h-161.87v-41.99l-87.9-71.01v-.01l1.73-2.13z" fill="#787878"/><path d="m376.04 726.64v2.23h-62.1v-148.83h62.1v3.7z" fill="#ff001c"/><path d="m438.15 580.04v148.83h-62.11v-148.83z" fill="#ff001c"/><path d="m667.34 730.71h-582.59v-236.58h163.38v-42l85.58-70.53.83-.69 2.58-2.12 38.52-31.74 39.28 31.74 2.65 2.14v.01l87.9 71.01v41.99h161.87zm-353.4-1.84h124.21v-148.83h-124.21zm322.49-62.62v-121.72h-66.97v121.72zm-102.2 0v-121.72h-66.97v121.72zm-252.37 0v-121.72h-66.97v121.72zm-102.2 0v-121.72h-66.97v121.72z" fill="#ffeec8"/><g fill="none" stroke="#231f20"><path d="m419.3 378.8h248.04v351.91h-582.59v-351.91h248.05" stroke-width="28"/><path d="m376.04 580.04h62.11v148.83h-124.21v-148.83z" stroke-width="21"/><path d="m179.66 574.61v91.64h-66.97v-121.72h66.97zm-66.97 0h66.97m-33.02-28.26v119.9m135.22-91.64v91.64h-66.97v-121.72h66.97zm-66.97 0h66.97m-33.02-28.26v119.9m285.39-91.64v91.64h-66.97v-121.72h66.97zm-66.97 0h66.97m-33.02-28.26v119.9m135.22-91.64v91.64h-66.97v-121.72h66.97zm-66.97 0h66.97m-33.01-28.26v119.9" stroke-width="14"/><path d="m333.71 381.6-85.58 70.53v42h-162.2" stroke-width="28"/><path d="m337.12 378.79-2.58 2.12-.83.69" stroke-width="25.324"/><path d="m414.92 378.79-39.28-31.74-38.52 31.74m330.56 115.15h-162.21v-41.99l-87.9-71.01v-.01l-2.65-2.14" stroke-width="28"/><path d="m376.04 583.74v142.9" stroke-width="21"/><path d="m572.29 139.89c0 15.8-10.57 28.62-23.59 28.62-13.03 0-23.58-12.82-23.58-28.62 0-15.79 10.55-28.6 23.58-28.6 13.02 0 23.59 12.81 23.59 28.6zm10 88.21v-36.92c0-8.88-7.21-16.45-17.33-19.34-2.84-.82-5.91-1.26-9.11-1.26h-13.19c-3.34 0-6.53.48-9.46 1.36-9.94 2.96-16.99 10.46-16.99 19.24v36.92" stroke-width="14"/><path d="m505.02 232.12 2.41-4.02h85.29l.76 1.31 16.68 28.76h-120.76l15.62-26.04m-.34 26.28v69.97h94.08v-69.97" stroke-width="21"/><path d="m533.26 171.94h-.06c-1.45.06-28.181 1.64-28.181 36.15v24.04m60.201-61.14s28.261.67 28.261 36.15v24.03m133.309-91.28c0 15.8-10.58 28.62-23.6 28.62-13.021 0-23.58-12.82-23.58-28.62 0-15.79 10.56-28.6 23.58-28.6s23.6 12.81 23.6 28.6zm9.99 88.21v-36.92c0-8.88-7.2-16.45-17.32-19.34-2.84-.82-5.91-1.26-9.11-1.26h-13.2c-3.341 0-6.53.48-9.471 1.36-9.93 2.96-16.979 10.46-16.979 19.24v36.92" stroke-width="14"/><path d="m659.51 232.12 2.41-4.02h85.29l.76 1.31 16.69 28.76h-120.77l15.62-26.04m-.33 26.28v69.97h94.07v-69.97" stroke-width="21"/><path d="m687.76 171.94h-.08c-1.649.08-28.17 1.78-28.17 36.15v24.04m60.21-61.14s28.25.67 28.25 36.15v24.03" stroke-width="14"/></g><path d="m0 0h850.394v850.394h-850.394z" fill="none"/></svg>

<svg xmlns="http://www.w3.org/2000/svg" width="850.394" height="850.394" viewBox="0 0 850.394 850.394" overflow="visible"><path d="M548.7 111.29c13.02 0 23.59 12.81 23.59 28.6 0 15.8-10.57 28.62-23.59 28.62-13.03 0-23.58-12.82-23.58-28.62 0-15.79 10.55-28.6 23.58-28.6zM703.19 111.29c13.02 0 23.6 12.81 23.6 28.6 0 15.8-10.58 28.62-23.6 28.62-13.021 0-23.58-12.82-23.58-28.62 0-15.79 10.56-28.6 23.58-28.6z" fill="#ffeec8"/><path d="M533.2 171.94c-9.94 2.96-16.99 10.46-16.99 19.24v36.92h-8.78l-2.41 4.02v-24.03c0-34.51 26.73-36.09 28.18-36.15z" fill="#0b00ea"/><path d="M533.2 171.94c2.93-.88 6.12-1.36 9.46-1.36h13.189c3.2 0 6.271.44 9.11 1.26 10.12 2.89 17.33 10.46 17.33 19.34v36.92h-66.08v-36.92c.001-8.78 7.051-16.28 16.991-19.24z" fill="#0b00ea"/><path d="M593.48 207.14v22.27l-.761-1.31h-10.43v-36.92c0-8.88-7.21-16.45-17.33-19.34l.26-.85c.001 0 28.261.67 28.261 36.15zM687.68 171.94c-9.93 2.96-16.979 10.46-16.979 19.24v36.92h-8.78l-2.41 4.02v-24.03c-.001-34.37 26.519-36.07 28.169-36.15zM747.97 207.14v22.27l-.76-1.31h-10.43v-36.92c0-8.88-7.2-16.45-17.32-19.34l.26-.85s28.25.67 28.25 36.15z" fill="#0b00ea"/><path d="M687.68 171.94c2.94-.88 6.13-1.36 9.471-1.36h13.199c3.2 0 6.271.44 9.11 1.26 10.12 2.89 17.32 10.46 17.32 19.34v36.92H670.7v-36.92c0-8.78 7.05-16.28 16.98-19.24z" fill="#0b00ea"/><path d="M593.48 229.41l16.68 28.76H489.4l15.619-26.04v-.01l2.41-4.02H592.719l.761 1.31zM598.76 258.41v69.97h-94.08v-70.21h94.08zM753.25 258.41v69.97h-94.07v-70.21h94.07zM747.97 229.41l16.69 28.76H643.89l15.62-26.04v-.01l2.41-4.02H747.21l.76 1.31z" fill="#9c5b16"/><path fill="#fff" d="M569.46 574.61h33.96v91.64h-33.96z"/><path fill="#fff" d="M603.42 574.61h33.01v91.64h-33.01zM636.43 544.53v30.08h-33.01V544.53zM603.42 546.35v28.26h-33.96v-30.08h33.96zM501.21 574.61h33.021v91.64H501.21zM467.26 574.61h33.95v91.64h-33.95zM534.23 544.53v30.08h-33.02V544.53zM501.21 546.35v28.26h-33.95v-30.08h33.95zM248.84 574.61h33.02v91.64h-33.02zM214.89 574.61h33.95v91.64h-33.95zM281.86 544.53v30.08h-33.02V544.53zM248.84 546.35v28.26h-33.95v-30.08h33.95zM112.69 574.61h33.95v91.64h-33.95zM146.64 574.61h33.02v91.64h-33.02zM179.66 544.53v30.08h-33.02V544.53zM146.64 546.35v28.26h-33.95v-30.08h33.95z"/><path fill="#787878" d="M332.8 378.8l1.74 2.11-.83.69-85.58 70.53v42H84.75V378.8zM667.34 378.8v115.14H505.47v-41.99l-87.9-71.01v-.01l1.73-2.13z"/><path fill="#ff001c" d="M376.04 726.64v2.23h-62.1V580.04h62.1v3.7z"/><path fill="#ff001c" d="M438.15 580.04v148.83h-62.11V580.04z"/><path d="M667.34 730.71H84.75V494.13h163.38v-42l85.58-70.53.83-.69 2.58-2.12 38.52-31.74 39.28 31.74 2.65 2.14v.01l87.9 71.01v41.99h161.87v236.77zm-353.4-1.84H438.15V580.04H313.94v148.83zm322.49-62.62V544.53h-66.97v121.72h66.97zm-102.2 0V544.53h-66.97v121.72h66.97zm-252.37 0V544.53h-66.97v121.72h66.97zm-102.2 0V544.53h-66.97v121.72h66.97z" fill="#ffeec8"/><g fill="none" stroke="#231f20"><path stroke-width="28" d="M419.3 378.8h248.04v351.91H84.75V378.8H332.8"/><path stroke-width="21" d="M376.04 580.04h62.11v148.83H313.94V580.04z"/><path stroke-width="14" d="M179.66 574.61v91.64h-66.97V544.53h66.97zM112.69 574.61h66.97M146.64 546.35v119.9M281.86 574.61v91.64h-66.97V544.53h66.97zM214.89 574.61h66.97M248.84 546.35v119.9M534.23 574.61v91.64h-66.97V544.53h66.97zM467.26 574.61h66.97M501.21 546.35v119.9M636.43 574.61v91.64h-66.97V544.53h66.97zM569.46 574.61h66.97M603.42 546.35v119.9"/><path stroke-width="28" d="M333.71 381.6l-85.58 70.53v42H85.93"/><path stroke-width="25.324" d="M337.12 378.79l-2.58 2.12-.83.69"/><path stroke-width="28" d="M414.92 378.79l-39.28-31.74-38.52 31.74M667.68 493.94H505.47v-41.99l-87.9-71.01v-.01l-2.65-2.14"/><path stroke-width="21" d="M376.04 583.74v142.9"/><path d="M572.29 139.89c0 15.8-10.57 28.62-23.59 28.62-13.03 0-23.58-12.82-23.58-28.62 0-15.79 10.55-28.6 23.58-28.6 13.02 0 23.59 12.81 23.59 28.6zM582.29 228.1v-36.92c0-8.88-7.21-16.45-17.33-19.34-2.84-.82-5.91-1.26-9.11-1.26h-13.19c-3.34 0-6.53.48-9.46 1.36-9.94 2.96-16.99 10.46-16.99 19.24v36.92" stroke-width="14"/><path stroke-width="21" d="M505.02 232.12l2.41-4.02H592.72l.76 1.31 16.68 28.76H489.4l15.62-26.04M504.68 258.41v69.97h94.08v-69.97"/><path d="M533.26 171.94h-.06c-1.45.06-28.181 1.64-28.181 36.15V232.13M565.22 170.99s28.261.67 28.261 36.15v24.03M726.79 139.89c0 15.8-10.58 28.62-23.6 28.62-13.021 0-23.58-12.82-23.58-28.62 0-15.79 10.56-28.6 23.58-28.6 13.02 0 23.6 12.81 23.6 28.6zM736.78 228.1v-36.92c0-8.88-7.2-16.45-17.32-19.34-2.84-.82-5.91-1.26-9.11-1.26h-13.2c-3.341 0-6.53.48-9.471 1.36-9.93 2.96-16.979 10.46-16.979 19.24v36.92" stroke-width="14"/><path stroke-width="21" d="M659.51 232.12l2.41-4.02H747.21l.76 1.31 16.69 28.76H643.89l15.62-26.04M659.18 258.41v69.97h94.07v-69.97"/><path d="M687.76 171.94h-.08c-1.649.08-28.17 1.78-28.17 36.15V232.13M719.72 170.99s28.25.67 28.25 36.15v24.03" stroke-width="14"/></g><path fill="none" d="M0 0h850.394v850.394H0z"/></svg>
